X: 178
T:Garryowen,aka. JC.177
T:Cosy Olwen. JC.177
M:6/8
L:1/8
Q:120
S:John Clare,Poet,Helpstone (1793-1864)
R:Jig
O:England
A:Northamptonshire
N:2nd word in title unclear. PH.. This appears as "Cosy Olwen" with the
N:rider from Marion Ross that it is not very legible in the MS, so I feel
N:justified in giving it it's well known title of Garryowen until someone
N:may care to re-examine the MS and show otherwise . CGP.
Z:vmp.P. Headford
K:G
g/f/|edc BAG|B>cB Bgf|edc BAG|A>BAA2g/f/|!
edc BAG|BcBB2d|defg2B|A>BAA2:|!
d|d2Bd2B|d2Bd2e|e2ce2c|e2ce2f|!
g2a {ga}b2a|g2e edB|defg2B|ABAA2|]
